libs/ui/packages/crypto-icons/src/svg/CTXC.svg

<svg width="24" height="24" viewBox="0 0 24 24" fill="none">
<path d="M11.9228 3.2985C11.8133 3.051 12.2093 2.8755 12.3188 3.111C14.8928 7.545 17.4668 11.9812 20.0408 16.422C19.9035 16.422 19.7715 16.377 19.6395 16.356L12.7695 14.9865C12.5445 14.9752 12.495 14.6115 12.7148 14.5575L15.4103 13.815C15.4424 13.8069 15.4723 13.7917 15.4979 13.7707C15.5235 13.7496 15.5441 13.7232 15.5583 13.6932C15.5725 13.6633 15.5799 13.6305 15.58 13.5974C15.5801 13.5643 15.5728 13.5315 15.5588 13.5015L11.9228 3.2925V3.29775V3.2985Z" fill="black"/>
<path d="M11.5275 3.321C11.5522 3.357 11.574 3.396 11.5927 3.4365C12.4072 5.7465 13.2428 8.0565 14.0513 10.3665C14.1233 10.5585 13.8533 10.7182 13.7213 10.575C13.0282 9.849 12.3682 9.10125 11.6865 8.37525C11.5762 8.27625 11.4165 8.34225 11.3453 8.4465L4.2615 16.7685C4.179 16.8562 4.10775 16.9882 3.96975 17.0047C3.87075 17.0047 3.80475 16.9275 3.75 16.851V16.7235C6.34575 12.258 8.9385 7.791 11.5275 3.321Z" fill="black"/>
<path d="M9.36 11.2462C9.492 11.208 9.6675 11.301 9.624 11.4607C9.34875 12.4177 9.05775 13.3695 8.77125 14.3205C8.72775 14.442 8.83725 14.5515 8.95275 14.5575C12.66 15.3 16.3673 16.0695 20.0737 16.812C20.1458 16.8232 20.1953 16.878 20.25 16.9222V17.076L20.145 17.1862H4.41C6.06 15.2062 7.70475 13.215 9.36 11.2462Z" fill="black"/>
<path d="M11.9228 3.2985C11.8133 3.051 12.2093 2.8755 12.3188 3.111C14.8928 7.545 17.4668 11.9812 20.0408 16.422C19.9035 16.422 19.7715 16.377 19.6395 16.356L12.7695 14.9865C12.5445 14.9752 12.495 14.6115 12.7148 14.5575L15.4103 13.815C15.4424 13.8069 15.4723 13.7917 15.4979 13.7707C15.5235 13.7496 15.5441 13.7232 15.5583 13.6932C15.5725 13.6633 15.5799 13.6305 15.58 13.5974C15.5801 13.5643 15.5728 13.5315 15.5588 13.5015L11.9228 3.2925V3.29775V3.2985Z" fill="black"/>
<path d="M11.5275 3.321C11.5522 3.357 11.574 3.396 11.5927 3.4365C12.4072 5.7465 13.2428 8.0565 14.0513 10.3665C14.1233 10.5585 13.8533 10.7182 13.7213 10.575C13.0282 9.849 12.3682 9.10125 11.6865 8.37525C11.5762 8.27625 11.4165 8.34225 11.3453 8.4465L4.2615 16.7685C4.179 16.8562 4.10775 16.9882 3.96975 17.0047C3.87075 17.0047 3.80475 16.9275 3.75 16.851V16.7235C6.34575 12.258 8.9385 7.791 11.5275 3.321Z" fill="black"/>
<path d="M9.36 11.2462C9.492 11.208 9.6675 11.301 9.624 11.4607C9.34875 12.4177 9.05775 13.3695 8.77125 14.3205C8.72775 14.442 8.83725 14.5515 8.95275 14.5575C12.66 15.3 16.3673 16.0695 20.0737 16.812C20.1458 16.8232 20.1953 16.878 20.25 16.9222V17.076L20.145 17.1862H4.41C6.06 15.2062 7.70475 13.215 9.36 11.2462Z" fill="black"/>
</svg>

<svg width="24" height="24" viewBox="0 0 24 24" fill="none"><path fill="#000" d="M11.923 3.299c-.11-.248.286-.423.396-.188q3.861 6.65 7.722 13.311c-.137 0-.27-.045-.401-.066l-6.87-1.37c-.226-.01-.275-.375-.055-.429l2.695-.742a.225.225 0 0 0 .149-.313l-3.636-10.21v.006"/><path fill="#000" d="M11.528 3.321a1 1 0 0 1 .065.115c.814 2.31 1.65 4.62 2.458 6.93.072.193-.198.352-.33.209-.693-.726-1.353-1.474-2.034-2.2-.11-.099-.27-.033-.342.072l-7.084 8.322c-.082.087-.153.22-.291.236-.1 0-.165-.078-.22-.154v-.127q3.893-6.699 7.778-13.403"/><path fill="#000" d="M9.36 11.246c.132-.038.308.055.264.215-.275.957-.566 1.909-.853 2.86-.043.121.066.23.182.236 3.707.743 7.414 1.513 11.12 2.255.073.011.122.066.177.11v.154l-.105.11H4.41c1.65-1.98 3.295-3.971 4.95-5.94"/><path fill="#000" d="M11.923 3.299c-.11-.248.286-.423.396-.188q3.861 6.65 7.722 13.311c-.137 0-.27-.045-.401-.066l-6.87-1.37c-.226-.01-.275-.375-.055-.429l2.695-.742a.225.225 0 0 0 .149-.313l-3.636-10.21v.006"/><path fill="#000" d="M11.528 3.321a1 1 0 0 1 .065.115c.814 2.31 1.65 4.62 2.458 6.93.072.193-.198.352-.33.209-.693-.726-1.353-1.474-2.034-2.2-.11-.099-.27-.033-.342.072l-7.084 8.322c-.082.087-.153.22-.291.236-.1 0-.165-.078-.22-.154v-.127q3.893-6.699 7.778-13.403"/><path fill="#000" d="M9.36 11.246c.132-.038.308.055.264.215-.275.957-.566 1.909-.853 2.86-.043.121.066.23.182.236 3.707.743 7.414 1.513 11.12 2.255.073.011.122.066.177.11v.154l-.105.11H4.41c1.65-1.98 3.295-3.971 4.95-5.94"/></svg>
